X: 51
T: No_15_Dancing_Song_from_the_East_God_(c).krn
N: Derived from No_15_Dancing_Song_from_the_East_God_(c).krn
%%abc-version 2.0
%%abcx-abcm2ps-target-version 5.9.1 (29 Sep 2008)
%%abc-creator hum2abc beta
%%abcx-conversion-date 2019/03/15 08:35:44
%%humdrum-veritas 1220003948
%%humdrum-veritas-data 1105263546
%%linebreak <none>
%%barnumbers 0
L: 1/8
M: 2/4
K: F clef=bass
[K:clef=bass][M:2/4]C2CA,3//G,// [I:setbarnb 2]| 
G,2G,F, | 
G,2A,G,3//F,// | 
F,2F,D, | 
F,2F,D,3//C,// | 
C,2C, z | 
G,2A,G,3//F,// | 
F,2F,D, | 
F,2-F,D,3//C,// | 
C,2C,A,,/ z/ | 
C,2-C,A,,3//F,,// | 
F,,2F,, z | 
A,,2A,,F,,3//F,,// | 
F,,2F,, z |]  



